X: 1649
T: Sabâ Örnek-öz
C: Rûhî Ayangil
O: Turkey
F: http://compmusic.upf.edu/node/140
N: saba--ornek-oz--sofyan--2--ruhi_ayangil
N: makam= saba
N: form= ornek-oz
N: usul= sofyan = 4/4
M: 4/4
L: 1/16
K: C _2/4B _3/4d  
Q: 1/4=60
%%MIDI tuningsystem comma53
A3_1/4B c3d B3d c4  | e3f g3f e3d c4  | \
w:   |   | 
e3f g3_7/8a g3f a4  | 
w:   | 
g3f e3d c3B A4  | |


